Numix-Light/16/status/indicator-keyboard-Kn.svg

<?xml version="1.0" encoding="UTF-8" standalone="no"?>
<svg
   xmlns:dc="http://purl.org/dc/elements/1.1/"
   xmlns:cc="http://creativecommons.org/ns#"
   xmlns:rdf="http://www.w3.org/1999/02/22-rdf-syntax-ns#"
   xmlns:svg="http://www.w3.org/2000/svg"
   xmlns="http://www.w3.org/2000/svg"
   xmlns:sodipodi="http://sodipodi.sourceforge.net/DTD/sodipodi-0.dtd"
   xmlns:inkscape="http://www.inkscape.org/namespaces/inkscape"
   viewBox="0 0 16 16"
   id="svg2"
   version="1.1"
   inkscape:version="0.91 r13725"
   sodipodi:docname="indicator-keyboard-Kn.svg">
  <metadata
     id="metadata13">
    <rdf:RDF>
      <cc:Work
         rdf:about="">
        <dc:format>image/svg+xml</dc:format>
        <dc:type
           rdf:resource="http://purl.org/dc/dcmitype/StillImage" />
      </cc:Work>
    </rdf:RDF>
  </metadata>
  <defs
     id="defs11" />
  <sodipodi:namedview
     pagecolor="#ffffff"
     bordercolor="#666666"
     borderopacity="1"
     objecttolerance="10"
     gridtolerance="10"
     guidetolerance="10"
     inkscape:pageopacity="0"
     inkscape:pageshadow="2"
     inkscape:window-width="640"
     inkscape:window-height="480"
     id="namedview9"
     showgrid="false"
     inkscape:zoom="14.75"
     inkscape:cx="8"
     inkscape:cy="8"
     inkscape:window-x="65"
     inkscape:window-y="24"
     inkscape:window-maximized="0"
     inkscape:current-layer="svg2" />
  <path
     style="fill:#353535;fill-opacity:1"
     d="M 1.5996094 0 C 0.71320937 2.9605947e-16 0 0.71320937 0 1.5996094 L 0 14.400391 C 2.9605947e-16 15.286791 0.71320937 16 1.5996094 16 L 14.400391 16 C 15.286791 16 16 15.286791 16 14.400391 L 16 1.5996094 C 16 0.71320937 15.286791 0 14.400391 0 L 1.5996094 0 z M 3.5058594 4.8808594 L 4.1191406 4.8808594 L 4.1191406 7.7890625 C 4.3471406 7.5850625 4.599 7.3499375 4.875 7.0859375 C 5.157 6.8159375 5.433125 6.5473438 5.703125 6.2773438 C 5.979125 6.0073438 6.2365625 5.7479531 6.4765625 5.5019531 C 6.7165625 5.2559531 6.9087344 5.0488594 7.0527344 4.8808594 L 7.7910156 4.8808594 C 7.6170156 5.0668594 7.4061562 5.288875 7.1601562 5.546875 C 6.9141562 5.798875 6.6529531 6.0600781 6.3769531 6.3300781 C 6.1009531 6.6000781 5.8248281 6.8668594 5.5488281 7.1308594 C 5.2788281 7.3888594 5.0363125 7.6184063 4.8203125 7.8164062 C 4.9943125 7.9244063 5.1809062 8.0587031 5.3789062 8.2207031 C 5.5829063 8.3767031 5.7862344 8.5501875 5.9902344 8.7421875 C 6.2002344 8.9281875 6.4035625 9.1259375 6.6015625 9.3359375 C 6.8055625 9.5399375 6.9959219 9.7470313 7.1699219 9.9570312 C 7.3499219 10.167031 7.5084844 10.372313 7.6464844 10.570312 C 7.7904844 10.768313 7.9080469 10.951141 7.9980469 11.119141 L 7.3125 11.119141 C 7.1085 10.807141 6.8790938 10.497406 6.6210938 10.191406 C 6.3690938 9.8854061 6.1003594 9.598125 5.8183594 9.328125 C 5.5363594 9.058125 5.2490781 8.8118437 4.9550781 8.5898438 C 4.6670781 8.3678438 4.3891406 8.18125 4.1191406 8.03125 L 4.1191406 11.119141 L 3.5058594 11.119141 L 3.5058594 4.8808594 z M 10.648438 6.375 C 11.002438 6.375 11.29725 6.4272969 11.53125 6.5292969 C 11.77125 6.6312969 11.959656 6.77675 12.097656 6.96875 C 12.241656 7.15475 12.344297 7.3805312 12.404297 7.6445312 C 12.464297 7.9085313 12.494141 8.1995781 12.494141 8.5175781 L 12.494141 11.119141 L 11.908203 11.119141 L 11.908203 8.7070312 C 11.908203 8.3770313 11.883937 8.0971406 11.835938 7.8691406 C 11.793938 7.6411406 11.719328 7.4545469 11.611328 7.3105469 C 11.509328 7.1665469 11.371266 7.0658594 11.197266 7.0058594 C 11.029266 6.9398594 10.816594 6.90625 10.558594 6.90625 C 10.282594 6.90625 10.041891 6.9211719 9.8378906 6.9511719 C 9.6398906 6.9811719 9.5111719 7.0092031 9.4511719 7.0332031 L 9.4511719 11.119141 L 8.8671875 11.119141 L 8.8671875 6.6269531 C 9.0411875 6.5789531 9.2743594 6.5248438 9.5683594 6.4648438 C 9.8623594 6.4048438 10.222437 6.375 10.648438 6.375 z "
     id="path4" />
</svg>

<svg xmlns="http://www.w3.org/2000/svg" viewBox="0 0 16 16">
 <path d="m 1.6 0 c -0.886 0 -1.6 0.713 -1.6 1.6 l 0 12.801 c 0 0.886 0.713 1.6 1.6 1.6 l 12.801 0 c 0.886 0 1.6 -0.713 1.6 -1.6 l 0 -12.801 c 0 -0.886 -0.713 -1.6 -1.6 -1.6 l -12.801 0 z m 1.906 4.881 l 0.613 0 l 0 2.908 c 0.228 -0.204 0.48 -0.439 0.756 -0.703 c 0.282 -0.27 0.558 -0.539 0.828 -0.809 c 0.276 -0.27 0.533 -0.529 0.773 -0.775 c 0.24 -0.246 0.432 -0.453 0.576 -0.621 l 0.738 0 c -0.174 0.186 -0.385 0.408 -0.631 0.666 c -0.246 0.252 -0.507 0.513 -0.783 0.783 c -0.276 0.27 -0.552 0.537 -0.828 0.801 c -0.27 0.258 -0.513 0.488 -0.729 0.686 c 0.174 0.108 0.361 0.242 0.559 0.404 c 0.204 0.156 0.407 0.329 0.611 0.521 c 0.21 0.186 0.413 0.384 0.611 0.594 c 0.204 0.204 0.394 0.411 0.568 0.621 c 0.18 0.21 0.339 0.415 0.477 0.613 c 0.144 0.198 0.262 0.381 0.352 0.549 l -0.686 0 c -0.204 -0.312 -0.433 -0.622 -0.691 -0.928 c -0.252 -0.306 -0.521 -0.593 -0.803 -0.863 c -0.282 -0.27 -0.569 -0.516 -0.863 -0.738 c -0.288 -0.222 -0.566 -0.409 -0.836 -0.559 l 0 3.088 l -0.613 0 l 0 -6.238 z m 7.143 1.494 c 0.354 0 0.649 0.052 0.883 0.154 c 0.24 0.102 0.428 0.247 0.566 0.439 c 0.144 0.186 0.247 0.412 0.307 0.676 c 0.06 0.264 0.09 0.555 0.09 0.873 l 0 2.602 l -0.586 0 l 0 -2.412 c 0 -0.33 -0.024 -0.61 -0.072 -0.838 c -0.042 -0.228 -0.117 -0.415 -0.225 -0.559 c -0.102 -0.144 -0.24 -0.245 -0.414 -0.305 c -0.168 -0.066 -0.381 -0.1 -0.639 -0.1 c -0.276 0 -0.517 0.015 -0.721 0.045 c -0.198 0.03 -0.327 0.058 -0.387 0.082 l 0 4.086 l -0.584 0 l 0 -4.492 c 0.174 -0.048 0.407 -0.102 0.701 -0.162 c 0.294 -0.06 0.654 -0.09 1.08 -0.09 z" style="fill:#353535;fill-opacity:1"/>
</svg>
